!!!OTL: Liebesqual.
!!!OTL-incipit: UND SCHAU ICH HIN SO SCHAUST DU HER
!!!COM: H. Langer
!!!ARE: Europa, Mitteleuropa, Deutschland
!!!SCT: F0019
!!!TXL: @@DE
!!!YEM: Copyright 1995, estate of Helmut Schaffrath.
**kern	**text
*ICvox	*
*M2/4	*
*clefG2	*
*k[]	*
*C:	*
!LO:TX:a:t=Munter.	!
!LO:TX:a:t=Ges. v. H. Langer	!
!LO:TX:a:t=Schwäbisches Volkslied.	!
{8g	1._Und
=1	=1
8f#	ſchau
8g	ich
8a	hin,
8g	ſo
=2	=2
8f#	ſchauſt
8g	du
8a}	her,
{8g	das
=3	=3
8g	macht
8f	mein
8dd/	Herʒ
8f	ſo
=4	=4
8f	ſchwer,
8e	ſo
8cc/}	ſchwer,
{8g	und
=5	=5
8f#	ſchau
8g	ich
8a	her,
8g	ſo
=6	=6
8f#	ſchauſt
8g	du
8a}	hin,
{8g	das
=7	=7
8g	macht
8f	ſo
8.ff/	wirr
16b/	den
=8	=8
4cc/	Sinn.
4r}	.
=9	=9
{4d	O
4g	ſchau
=10	=10
4.b/}	nur
{(16b/L	ein
16ccJ)	.
=11	=11
8b/^	ein-
8a/	-ʒigs-
8a/	-mal,
(16aL	ein
16bJ)	.
=12	=12
8a/^	ein-
8g	-ʒigs-
4g}	-mal
=13	=13
{4d	mit-
4g	-leids-
=14	=14
8.b/}	-voll
{16b/L	in
16ccJ	.
=15	=15
8b/^	mei-
8a	-ne
8.ee/;	Lie-
16dd/	-bes-
=16	=16
4g	-qual.
8r}	.
{8g	Und
=17	=17
8f#	ſchau
8g	ich
8a	hin,
8g	ſo
=18	=18
8f#	ſchauſt
8g	du
8a}	her,
{8g	das
=19	=19
8g	macht
8f	mein
8dd/	Herʒ
8f	ſo
=20	=20
8f	ſchwer,
8e	ſo
8cc/}	ſchwer,
{8g	und
=21	=21
8f#	ſchau
8g	ich
8a	her,
8g	ſo
=22	=22
8f#	ſchauſt
8g	du
8a}	hin,
{8g	das
=23	=23
8g	macht
8f	ſo
8.ff/	wirr
16b/	den
=24	=24
4cc	Sinn.
8r}	.
==	==
!!!AGN: Liebes - Lied, Klage, Schmerz
!!!ONB: ESAC (Essen Associative Code) Database: FINK
!!!AMT: simple duple
!!!AIN: vox
!!!EED: Helmut Schaffrath
!!!EEV: 1.0
!!Text: Schwaebisches Volkslied
!!!source: Musikalischer Hausschatz der Deutschen. Eine Sammlung von über 1000 Liedern und Gesängen mit Singstimmen und Klavierbegleitung. Leipzig, Litterarisches Verlags-Haus.
!!!page: 10
!!!ENC: Anna Maria Matuszewska
!!!EEV: 2024/03/11
*-	*-
